X:162
T:My Love is Breathing. RH.162
T:Legacy,The. RH.162
T:Constant Billy,aka. RH.162
R:Jig
S:Rev.R.Harrison’s MS,c1815,Cumbria
O:England
A:Temple Sowerby,Cumbria
Z:vmp.Simon Wilson. Review PJH, 2008.
M:6/8
L:1/8
Q:3/8=120
K:D
d2d dAF|a2a afd|d2e fef|B2c d2z|!
d2d dAF|a2a afd|d2e fef|B2c d2z|!
dfa d’2d’|c’ba baz|dfa d’2d’|c’ba b2c’|!
d’2d’ c’af|b2b afd|d2e fef|B2c d3|]

